X:30
T:Pleasant Reel. RH.030
T:Gloster Reel, aka. RH.030
T:Gloucester Reel , aka. RH.030
R:Reel
S:Rev.R.Harrison’s MS,c1815,Cumbria
N:..or Pheasant?
O:England
A:Temple Sowerby,Cumbria
Z:vmp.Simon Wilson. Review PJH, 2008.
M:C
L:1/8
Q:2/4=100
K:G
|:d2BG BGBG|d2BG cAA2|\
d2BG BGBG|gedc BGG2:|!
|:gbeg fadf|gedB cA Af|\
gbeg fadf|gedc BGGf|!
gbeg fadf|gedc cAAf|\
gaba gedc|((3cde) dc BGG2:|

